packages/netlify-cms-ui-default/src/Icon/images/add-with.svg

<svg height="20" viewBox="0 0 22 20" width="22" xmlns="http://www.w3.org/2000/svg"><path d="m403.5 22-3.5-4h7zm-4-5.75h-2.75c-.276142 0-.5.2238576-.5.5v2.75c0 .2761424-.223858.5-.5.5h-1.5c-.276142 0-.5-.2238576-.5-.5v-2.75c0-.2761424-.223858-.5-.5-.5h-2.75c-.276142 0-.5-.2238576-.5-.5v-1.5c0-.2761424.223858-.5.5-.5h2.75c.276142 0 .5-.2238576.5-.5v-2.75c0-.2761424.223858-.5.5-.5h1.5c.276142 0 .5.2238576.5.5v2.75c0 .2761424.223858.5.5.5h2.75c.276142 0 .5.2238576.5.5v1.5c0 .2761424-.223858.5-.5.5z" fill="#7a8291" fill-rule="evenodd" transform="translate(-387 -6)"/></svg>

<svg xmlns="http://www.w3.org/2000/svg" width="22" height="20" viewBox="0 0 22 20"><path fill="#7A8291" fill-rule="evenodd" d="M403.5,22 L400,18 L407,18 L403.5,22 Z M399.5,16.25 L396.75,16.25 L396.75,16.25 C396.473858,16.25 396.25,16.4738576 396.25,16.75 L396.25,19.5 C396.25,19.7761424 396.026142,20 395.75,20 L394.25,20 C393.973858,20 393.75,19.7761424 393.75,19.5 L393.75,16.75 C393.75,16.4738576 393.526142,16.25 393.25,16.25 L390.5,16.25 C390.223858,16.25 390,16.0261424 390,15.75 L390,14.25 C390,13.9738576 390.223858,13.75 390.5,13.75 L393.25,13.75 L393.25,13.75 C393.526142,13.75 393.75,13.5261424 393.75,13.25 L393.75,10.5 L393.75,10.5 C393.75,10.2238576 393.973858,10 394.25,10 L395.75,10 C396.026142,10 396.25,10.2238576 396.25,10.5 L396.25,13.25 C396.25,13.5261424 396.473858,13.75 396.75,13.75 L399.5,13.75 C399.776142,13.75 400,13.9738576 400,14.25 L400,15.75 C400,16.0261424 399.776142,16.25 399.5,16.25 Z" transform="translate(-387 -6)"/></svg>
